public/images/icons/icon_whatsapp.svg

<svg xmlns="http://www.w3.org/2000/svg" width="512" height="512" style="shape-rendering:geometricPrecision;text-rendering:geometricPrecision;image-rendering:optimizeQuality;fill-rule:evenodd;clip-rule:evenodd"><path fill="#1fce64" d="M232.5-.5h46q134.466 16.332 202.5 133 25.042 47.206 30.5 100v46q-16.332 134.466-133 202.5-47.206 25.042-100 30.5h-46Q98.034 495.168 30 378.5 4.958 331.294-.5 278.5v-46Q15.831 98.036 132.5 30q47.206-25.042 100-30.5" style="opacity:1"/><path fill="#f8f9f8" d="M243.5 94.5q99.546-2.866 151.5 81 37.111 69.767 7 143-38.177 80.483-126.5 93.5-33.06 4.748-65-5a668 668 0 0 1-32-12.5l-82 21a2406 2406 0 0 1 21-81q-16.45-32.604-20.5-69-1.803-110.69 97.5-158.5 23.908-9.35 49-12.5" style="opacity:1"/><path fill="#20ce64" d="M136.5 377.5q-1.487.258-2-1a3573 3573 0 0 1 12-46.5q-47.715-78.954 3.5-155.5 65.551-76.951 160.5-41.5 85.928 44.584 76.5 141.5-16.868 84.37-99.5 108.5-55.917 12.389-104.5-17.5a4751 4751 0 0 0-46.5 12" style="opacity:1"/><path fill="#f8f9f9" d="M195.5 180.5q8.016-.249 16 .5 3.909 2.907 5.5 7.5a649 649 0 0 1 12.5 32q-3.474 11.243-12.5 19-1 3 0 6 20.317 35.06 58.5 49a10.3 10.3 0 0 0 4-1.5 555 555 0 0 0 14-17.5q1.589-1.794 4-2a326 326 0 0 1 38 17.5q4.738 21.606-14 33-19.616 10.608-41 4-52.565-16.65-84.5-61.5-14.76-17.52-20-40-4.347-29.265 19.5-46" style="opacity:1"/><path fill="#9ae8b6" d="M134.5 376.5q.513 1.258 2 1-1.329 1.914-3 0 .186-.91 1-1" style="opacity:1"/></svg>

<?xml version="1.0" encoding="UTF-8"?>
<!DOCTYPE svg PUBLIC "-//W3C//DTD SVG 1.1//EN" "http://www.w3.org/Graphics/SVG/1.1/DTD/svg11.dtd">
<svg xmlns="http://www.w3.org/2000/svg" version="1.1" width="512px" height="512px" style="shape-rendering:geometricPrecision; text-rendering:geometricPrecision; image-rendering:optimizeQuality; fill-rule:evenodd; clip-rule:evenodd" xmlns:xlink="http://www.w3.org/1999/xlink">
<g><path style="opacity:1" fill="#1fce64" d="M 232.5,-0.5 C 247.833,-0.5 263.167,-0.5 278.5,-0.5C 368.144,10.3879 435.644,54.7213 481,132.5C 497.695,163.971 507.861,197.304 511.5,232.5C 511.5,247.833 511.5,263.167 511.5,278.5C 500.612,368.144 456.279,435.644 378.5,481C 347.029,497.695 313.696,507.861 278.5,511.5C 263.167,511.5 247.833,511.5 232.5,511.5C 142.856,500.612 75.3562,456.279 30,378.5C 13.3053,347.029 3.1386,313.696 -0.5,278.5C -0.5,263.167 -0.5,247.833 -0.5,232.5C 10.3875,142.857 54.7208,75.3573 132.5,30C 163.971,13.3053 197.304,3.1386 232.5,-0.5 Z"/></g>
<g><path style="opacity:1" fill="#f8f9f8" d="M 243.5,94.5 C 309.864,92.5892 360.364,119.589 395,175.5C 419.741,222.011 422.074,269.678 402,318.5C 376.549,372.155 334.382,403.322 275.5,412C 253.46,415.165 231.794,413.499 210.5,407C 199.701,403.098 189.035,398.931 178.5,394.5C 151.138,401.507 123.804,408.507 96.5,415.5C 103.021,388.415 110.021,361.415 117.5,334.5C 106.534,312.764 99.7004,289.764 97,265.5C 95.7977,191.706 128.298,138.873 194.5,107C 210.438,100.766 226.772,96.5993 243.5,94.5 Z"/></g>
<g><path style="opacity:1" fill="#20ce64" d="M 136.5,377.5 C 135.508,377.672 134.842,377.338 134.5,376.5C 138.392,360.988 142.392,345.488 146.5,330C 114.69,277.364 115.857,225.531 150,174.5C 193.701,123.199 247.201,109.366 310.5,133C 367.785,162.723 393.285,209.889 387,274.5C 375.754,330.746 342.588,366.913 287.5,383C 250.222,391.259 215.388,385.426 183,365.5C 167.463,369.426 151.963,373.426 136.5,377.5 Z"/></g>
<g><path style="opacity:1" fill="#f8f9f9" d="M 195.5,180.5 C 200.844,180.334 206.177,180.501 211.5,181C 214.106,182.938 215.939,185.438 217,188.5C 221.456,199.075 225.623,209.742 229.5,220.5C 227.184,227.995 223.017,234.329 217,239.5C 216.333,241.5 216.333,243.5 217,245.5C 230.545,268.873 250.045,285.206 275.5,294.5C 276.938,294.281 278.271,293.781 279.5,293C 284.287,287.258 288.953,281.425 293.5,275.5C 294.559,274.304 295.893,273.637 297.5,273.5C 310.521,278.509 323.187,284.343 335.5,291C 338.659,305.404 333.992,316.404 321.5,324C 308.423,331.072 294.756,332.405 280.5,328C 245.457,316.9 217.29,296.4 196,266.5C 186.16,254.82 179.493,241.486 176,226.5C 173.102,206.99 179.602,191.657 195.5,180.5 Z"/></g>
<g><path style="opacity:1" fill="#9ae8b6" d="M 134.5,376.5 C 134.842,377.338 135.508,377.672 136.5,377.5C 135.614,378.776 134.614,378.776 133.5,377.5C 133.624,376.893 133.957,376.56 134.5,376.5 Z"/></g>
</svg>
